START -> START START | VARIABLE A1 | VARIABLE B1 | VARIABLE C1 | VARIABLE D1 | VARIABLE E1 | III EXPRES | IF ELIF | IF ELSE | IF RETURN | IF RAISE | IF FUSION | KKK BRACKET | AAA EXPRES | WHILE FUSION | ZZ EE1 | ZZ FF1 | ZZ GG1 | XX HH1 | DEF RETURN | WW II1 | UU JJ1 | UU VARIABLE | SS KK1 | SS LL1 | NNN X1 | LLL Y1
ZZZ -> =
A1 -> ZZZ ALL
B1 -> OPS B2
B2 -> ZZZ ALL
C1 -> OPS C2
C2 -> ZZZ ALL
D1 -> OPS D2
D2 -> ZZZ ALL
E1 -> OPS E2
E2 -> ZZZ ALL
ALL ->  VARIABLE | ALL F1 | ALL G1 | number | UUU J1 | ALL K1 | ALL L1 | CCC BRACKET | TYPE DD1 | RR MM1 | BOOL M1 | BOOL N1 | QQQ BOOL | ALL O1 | ALL P1 | True | False | NNN Q1 | LLL R1 | NNN T1 | LLL U1 | STRING W1
F1 -> OPS ALL
YYY -> ,
G1 -> YYY ALL
VARIABLE -> variable
XXX -> [
WWW -> ]
LIST -> XXX H1 | XXX I1
H1 -> ALL WWW
I1 -> LIST WWW
VALUE -> number | UUU J1 | ALL K1 | ALL L1 | BOOL M1 | BOOL N1 | QQQ BOOL | ALL O1 | ALL P1 | NNN Q1 | LLL R1 | NNN T1 | LLL U1 | STRING W1 | True | False
UUU -> (
TTT -> )
J1 -> ALL TTT
K1 -> OPS ALL
L1 -> ANOTHEROPS ALL
PRIMBOOL -> True | False
SSS -> and
BOOL -> BOOL M1 | BOOL N1 | QQQ BOOL | ALL O1 | ALL P1 | True | False
M1 -> SSS BOOL
RRR -> or
N1 -> RRR BOOL
QQQ -> not
PPP -> is
O1 -> PPP ALL
P1 -> RELATION ALL
RELATION -> > | < | ZZZ ZZZ | OOO ZZZ | RELATION ZZZ | RELATION ZZZ
OOO -> !
OPS -> + | - | * | / | %
ANOTHEROPS -> OPS OPS | OPS OPS
NNN -> "
MMM -> string
STRING -> NNN Q1 | LLL R1 | NNN T1 | LLL U1 | STRING W1
Q1 -> MMM NNN
LLL -> '
R1 -> MMM LLL
T1 -> COMBODY NNN
U1 -> COMBODY LLL
W1 -> OPS STRING
COMMENT -> NNN X1 | LLL Y1
X1 -> NNN X2
X2 -> NNN X3
X3 -> COMBODY X4
X4 -> NNN X5
X5 -> NNN NNN
Y1 -> LLL Y2
Y2 -> LLL Y3
Y3 -> COMBODY Y4
Y4 -> LLL Y5
Y5 -> LLL LLL
COMBODY -> COMBODY COMBODY |  VARIABLE | ALL F1 | ALL G1 | number | UUU J1 | ALL K1 | ALL L1 | BOOL M1 | BOOL N1 | QQQ BOOL | ALL O1 | ALL P1 | NNN Q1 | LLL R1 | NNN T1 | LLL U1 | STRING W1 | CCC BRACKET | TYPE DD1 | RR MM1 | True | False
BRACKET -> UUU Z1 | UUU TTT
Z1 -> ALL TTT
KKK -> print
PRINT -> KKK BRACKET
JJJ -> :
BACK -> JJJ START
EXPRES -> UUU AA1 | BOOL BACK
AA1 -> BOOL AA2
AA2 -> TTT BACK
III -> if
IF -> III EXPRES | IF ELIF | IF ELSE | IF RETURN | IF RAISE | IF FUSION
HHH -> elif
ELIF -> HHH EXPRES | ELIF ELIF | ELIF ELSE | ELIF RETURN | ELIF RAISE | ELIF FUSION
GGG -> else
ELSE -> GGG BACK | ELSE RETURN | ELSE RAISE | ELSE FUSION
FFF -> raise
EEE -> TypeError
RAISE -> FFF BB1 | FFF CC1
BB1 -> EEE BRACKET
DDD -> Exception
CC1 -> DDD BRACKET
BREAK -> break
PASS -> pass
CONTINUE -> continue
TYPE -> str | float | int | double
CCC -> input
INPUT -> CCC BRACKET | TYPE DD1
DD1 -> UUU DD2
DD2 -> INPUT TTT
BBB -> range
RANGE -> BBB BRACKET
AAA -> while
WHILE -> AAA EXPRES | WHILE FUSION
ZZ -> for
YY -> in
FOR -> ZZ EE1 | ZZ FF1 | ZZ GG1
EE1 -> VARIABLE EE2
EE2 -> YY EE3
EE3 -> STRING BACK
FF1 -> VARIABLE FF2
FF2 -> YY FF3
FF3 -> RANGE BACK
GG1 -> VARIABLE GG2
GG2 -> YY GG3
GG3 -> LIST BACK
XX -> def
DEF -> XX HH1 | DEF RETURN
HH1 -> VARIABLE HH2
HH2 -> BRACKET BACK
RETURN -> RETURN BOOL | RETURN ALL | return
WW -> class
CLASS -> WW II1
II1 -> VARIABLE BACK
UU -> import
TT -> as
IMPORT -> UU JJ1 | UU VARIABLE
JJ1 -> VARIABLE JJ2
JJ2 -> TT VARIABLE
SS -> from
FROM -> SS KK1 | SS LL1
KK1 -> VARIABLE IMPORT
LL1 -> VARIABLE LL2
LL2 -> UU OPS
RR -> with
QQ -> open
WITH -> RR MM1
MM1 -> QQ MM2
MM2 -> BRACKET MM3
MM3 -> TT VARIABLE
S0 -> START START | VARIABLE A1 | VARIABLE B1 | VARIABLE C1 | VARIABLE D1 | VARIABLE E1 | III EXPRES | IF ELIF | IF ELSE | IF RETURN | IF RAISE | IF FUSION | KKK BRACKET | AAA EXPRES | WHILE FUSION | ZZ EE1 | ZZ FF1 | ZZ GG1 | XX HH1 | DEF RETURN | WW II1 | UU JJ1 | UU VARIABLE | SS KK1 | SS LL1 | NNN X1 | LLL Y1
FUSION -> break | pass | continue
