START -> START START | VARIABLE A1 | VARIABLE B1 | VARIABLE C1 | VARIABLE D1 | VARIABLE E1 | III EXPRES | IF ELIF | IF ELSE | IF RETURN | IF RAISE | IF FUSION | KKK BRACKET | CCC EXPRES | WHILE FUSION | BBB CC1 | BBB DD1 | BBB EE1 | ZZ FF1 | DEF RETURN | XX GG1 | WW HH1 | WW VARIABLE | TT II1 | TT JJ1 | MMM X1 | LLL Y1
ZZZ -> =
A1 -> ZZZ ALL
B1 -> OPS B2
B2 -> ZZZ ALL
C1 -> OPS C2
C2 -> ZZZ ALL
D1 -> OPS D2
D2 -> ZZZ ALL
E1 -> OPS E2
E2 -> ZZZ ALL
ALL ->  VARIABLE | ALL F1 | ALL G1 | number | UUU J1 | ALL K1 | ALL L1 | EEE BRACKET | TYPE BB1 | SS KK1 | BOOL M1 | BOOL N1 | QQQ BOOL | ALL O1 | ALL P1 | True | False | MMM Q1 | LLL R1 | MMM T1 | LLL U1 | STRING W1
F1 -> OPS ALL
YYY -> ,
G1 -> YYY ALL
VARIABLE -> variable
XXX -> [
WWW -> ]
LIST -> XXX H1 | XXX I1
H1 -> ALL WWW
I1 -> LIST WWW
VALUE -> number | UUU J1 | ALL K1 | ALL L1 | BOOL M1 | BOOL N1 | QQQ BOOL | ALL O1 | ALL P1 | MMM Q1 | LLL R1 | MMM T1 | LLL U1 | STRING W1 | True | False
UUU -> (
TTT -> )
J1 -> ALL TTT
K1 -> OPS ALL
L1 -> ANOTHEROPS ALL
PRIMBOOL -> True | False
SSS -> and
BOOL -> BOOL M1 | BOOL N1 | QQQ BOOL | ALL O1 | ALL P1 | True | False
M1 -> SSS BOOL
RRR -> or
N1 -> RRR BOOL
QQQ -> not
PPP -> is
O1 -> PPP ALL
P1 -> RELATION ALL
RELATION -> > | < | ZZZ ZZZ | OOO ZZZ | RELATION ZZZ | RELATION ZZZ
OOO -> !
OPS -> + | - | * | / | %
ANOTHEROPS -> OPS OPS | OPS OPS
NNN -> string
MMM -> "
STRING -> MMM Q1 | LLL R1 | MMM T1 | LLL U1 | STRING W1
Q1 -> NNN MMM
LLL -> '
R1 -> NNN LLL
T1 -> COMBODY MMM
U1 -> COMBODY LLL
W1 -> OPS STRING
COMMENT -> MMM X1 | LLL Y1
X1 -> MMM X2
X2 -> MMM X3
X3 -> COMBODY X4
X4 -> MMM X5
X5 -> MMM MMM
Y1 -> LLL Y2
Y2 -> LLL Y3
Y3 -> COMBODY Y4
Y4 -> LLL Y5
Y5 -> LLL LLL
COMBODY -> COMBODY COMBODY |  VARIABLE | ALL F1 | ALL G1 | number | UUU J1 | ALL K1 | ALL L1 | BOOL M1 | BOOL N1 | QQQ BOOL | ALL O1 | ALL P1 | MMM Q1 | LLL R1 | MMM T1 | LLL U1 | STRING W1 | EEE BRACKET | TYPE BB1 | SS KK1 | True | False
NEBRACKET -> UUU Z1
Z1 -> ALL TTT
BRACKET -> UUU TTT | UUU Z1
KKK -> print
PRINT -> KKK BRACKET
JJJ -> :
BACK -> JJJ START
EXPRES -> UUU AA1 | BOOL BACK
AA1 -> BOOL AA2
AA2 -> TTT BACK
III -> if
IF -> III EXPRES | IF ELIF | IF ELSE | IF RETURN | IF RAISE | IF FUSION
HHH -> elif
ELIF -> HHH EXPRES | ELIF ELIF | ELIF ELSE | ELIF RETURN | RAISEELIF
GGG -> else
ELSE -> GGG BACK
FFF -> raise
RAISE -> FFF BRACKET
BREAK -> break
PASS -> pass
CONTINUE -> continue
TYPE -> str | float | int | double
EEE -> input
INPUT -> EEE BRACKET | TYPE BB1
BB1 -> UUU BB2
BB2 -> INPUT TTT
DDD -> range
RANGE -> DDD BRACKET
CCC -> while
WHILE -> CCC EXPRES | WHILE FUSION
BBB -> for
AAA -> in
FOR -> BBB CC1 | BBB DD1 | BBB EE1
CC1 -> VARIABLE CC2
CC2 -> AAA CC3
CC3 -> STRING BACK
DD1 -> VARIABLE DD2
DD2 -> AAA DD3
DD3 -> RANGE BACK
EE1 -> VARIABLE EE2
EE2 -> AAA EE3
EE3 -> LIST BACK
ZZ -> def
DEF -> ZZ FF1 | DEF RETURN
FF1 -> VARIABLE FF2
FF2 -> BRACKET BACK
YY -> return
RETURN -> YY BOOL | YY ALL
XX -> class
CLASS -> XX GG1
GG1 -> VARIABLE BACK
WW -> import
UU -> as
IMPORT -> WW HH1 | WW VARIABLE
HH1 -> VARIABLE HH2
HH2 -> UU VARIABLE
TT -> from
FROM -> TT II1 | TT JJ1
II1 -> VARIABLE IMPORT
JJ1 -> VARIABLE JJ2
JJ2 -> WW OPS
SS -> with
RR -> open
WITH -> SS KK1
KK1 -> RR KK2
KK2 -> BRACKET KK3
KK3 -> UU VARIABLE
S0 -> START START | VARIABLE A1 | VARIABLE B1 | VARIABLE C1 | VARIABLE D1 | VARIABLE E1 | III EXPRES | IF ELIF | IF ELSE | IF RETURN | IF RAISE | IF FUSION | KKK BRACKET | CCC EXPRES | WHILE FUSION | BBB CC1 | BBB DD1 | BBB EE1 | ZZ FF1 | DEF RETURN | XX GG1 | WW HH1 | WW VARIABLE | TT II1 | TT JJ1 | MMM X1 | LLL Y1
FUSION -> break | pass | continue
